icons/svg/arrange-bring-to-front.svg

<svg xmlns="http://www.w3.org/2000/svg" version="1.1" baseProfile="full" width="24" height="24" viewBox="0 0 24.00 24.00" xml:space="preserve"><path fill="#000" fill-opacity="1" stroke-width=".2" stroke-linejoin="round" d="M2 2h9v4H9V4H4v5h2v2H2V2zm20 11v9h-9v-4h2v2h5v-5h-2v-2h4zM8 8h8v8H8V8z"/></svg>

﻿<?xml version="1.0" encoding="utf-8"?>
<!DOCTYPE svg PUBLIC "-//W3C//DTD SVG 1.1//EN" "http://www.w3.org/Graphics/SVG/1.1/DTD/svg11.dtd">
<svg xmlns="http://www.w3.org/2000/svg" xmlns:xlink="http://www.w3.org/1999/xlink" version="1.1" baseProfile="full" width="24" height="24" viewBox="0 0 24.00 24.00" enable-background="new 0 0 24.00 24.00" xml:space="preserve">
	<path fill="#000000" fill-opacity="1" stroke-width="0.2" stroke-linejoin="round" d="M 2,2L 11,2.00001L 11,6L 9,6L 9,4L 4,4.00001L 4,9L 6,9L 6,11L 2,11L 2,2 Z M 22,13L 22,22L 13,22L 13,18L 15,18L 15,20L 20,20L 20,15L 18,15L 18,13L 22,13 Z M 8,8L 16,8L 16,16L 8,16L 8,8 Z "/>
</svg>
